X:847
T:Atkin's Polka No.2
R:Polka
M:2/4
L:1/16
K:D
A2|DFAd f2d2|d2c2 cBc2|CEGB c2B2|B2A2 A^GA2|
DFAd f2d2|d2c2 cBc2|CEGB c2c2|d2d2 d2:|
K:A
|:e2|f2e2 c3A|E2A2 c3e|f2e2 c3A|E2A2 c3e|
a2g2 g3a|g2f2 f3a|g2f2 f3g|f2e2 e3e|
f2e2 c3A|D2A2 c3e|f2e2 c3A|E2A2 c3e|
a2g2 g3a|g2f2 f3g|f2e2 B3c|A2c2 A2:|


